X: 1
T:Corinna, Corinna
C:anon.
O:USA
R:Blues
Z:Transcribed by Frank Nordberg - http://www.musicaviva.com
M:C|
L:1/8
Q:1/4=112
K:G
"G"B,2B,>C ^C2||"G"D4 B4|"D7"z2 B>^A B2=A2|"G"G8|
w:Cor-in-na, Cor-in-na, Where'd you stay last night?
"G7"z2 B2 B>G A2|"C"G4 G4|"C"z2 A>AG2 E2|"G"D8|
w:Cor-in-na, Cor-i-nna, Where'd you stay last night?
"G2"z2 D2 ^C2D2|"D7"AA2 A-A4|"D7"z2 c2 (B>F)A2|"G"G8|"G"z2|]
w:Your shoes ain't but-ton'd, gal,* don't fit* you right.
W:
W:Corinna, Corinna, Where'd you stay last night? (2x)
W:Your shoes ain't button'd, gal, don't fit you right.
W:
W:Corinna, Corinna, where've you been so long? (2x)
W:Ain't had no lovin', dear, since you've been gone.
W:
W:Corinna, Corinna, what's the matter now? (2x)
W:You done gone bad, my babe, sho' ain't good nohow.
W:
W:Corinna, Corinna, love you deed I do,
W:I love you Corinna, the God Lord knows I do,
W:and keep hoping, babe, that you love me too.
